packages/kaspersky-hexa-ui-icons/src/iconsSVGs/28x20/FlagSk.svg

<svg width="28" height="20" viewBox="0 0 28 20" fill="none" xmlns="http://www.w3.org/2000/svg">
<g clip-path="url(#clip0_5138_1730)">
<path d="M0 2C0 0.895431 0.895431 0 2 0H26C27.1046 0 28 0.895431 28 2V18C28 19.1046 27.1046 20 26 20H2C0.895431 20 0 19.1046 0 18V2Z" fill="white"/>
<mask id="mask0_5138_1730" style="mask-type:luminance" maskUnits="userSpaceOnUse" x="0" y="0" width="28" height="20">
<rect width="28" height="20" rx="2" fill="white"/>
</mask>
<g mask="url(#mask0_5138_1730)">
<path d="M26 19.5V20H2V19.5H26ZM27.5 18V2C27.5 1.17157 26.8284 0.5 26 0.5H2C1.17157 0.5 0.5 1.17157 0.5 2V18C0.5 18.8284 1.17157 19.5 2 19.5V20C0.895431 20 0 19.1046 0 18V2C2.57702e-07 0.895431 0.895431 0 2 0H26C27.1046 0 28 0.895431 28 2V18C28 19.1046 27.1046 20 26 20V19.5C26.8284 19.5 27.5 18.8284 27.5 18Z" fill="#F5F5F5"/>
<path fill-rule="evenodd" clip-rule="evenodd" d="M0 13.3333H28V6.66666H0V13.3333Z" fill="#0C47B7"/>
<path fill-rule="evenodd" clip-rule="evenodd" d="M0 20H28V13.3333H0V20Z" fill="#E53B35"/>
</g>
<g clip-path="url(#clip1_5138_1730)">
<mask id="path-6-outside-1_5138_1730" maskUnits="userSpaceOnUse" x="3.38335" y="2" width="13" height="16" fill="black">
<rect fill="white" x="3.38335" y="2" width="13" height="16"/>
<path fill-rule="evenodd" clip-rule="evenodd" d="M5.61735 5.28209C5.64489 4.56618 6.23326 4 6.9497 4H13.0503C13.7667 4 14.3551 4.56618 14.3826 5.28209L14.6419 12.0226C14.6575 12.4294 14.4864 12.8212 14.1773 13.0862L11.3016 15.551C10.5526 16.193 9.4474 16.193 8.69842 15.551L5.82273 13.0862C5.51358 12.8212 5.34246 12.4294 5.35811 12.0226L5.61735 5.28209Z"/>
</mask>
<path fill-rule="evenodd" clip-rule="evenodd" d="M5.61735 5.28209C5.64489 4.56618 6.23326 4 6.9497 4H13.0503C13.7667 4 14.3551 4.56618 14.3826 5.28209L14.6419 12.0226C14.6575 12.4294 14.4864 12.8212 14.1773 13.0862L11.3016 15.551C10.5526 16.193 9.4474 16.193 8.69842 15.551L5.82273 13.0862C5.51358 12.8212 5.34246 12.4294 5.35811 12.0226L5.61735 5.28209Z" fill="#F73744"/>
<path fill-rule="evenodd" clip-rule="evenodd" d="M5.61735 5.28209C5.64489 4.56618 6.23326 4 6.9497 4H13.0503C13.7667 4 14.3551 4.56618 14.3826 5.28209L14.6419 12.0226C14.6575 12.4294 14.4864 12.8212 14.1773 13.0862L11.3016 15.551C10.5526 16.193 9.4474 16.193 8.69842 15.551L5.82273 13.0862C5.51358 12.8212 5.34246 12.4294 5.35811 12.0226L5.61735 5.28209Z" stroke="white" stroke-width="2.66667" mask="url(#path-6-outside-1_5138_1730)"/>
<mask id="mask1_5138_1730" style="mask-type:luminance" maskUnits="userSpaceOnUse" x="4" y="2" width="12" height="16">
<mask id="path-7-outside-2_5138_1730" maskUnits="userSpaceOnUse" x="3.38335" y="2" width="13" height="16" fill="black">
<rect fill="white" x="3.38335" y="2" width="13" height="16"/>
<path fill-rule="evenodd" clip-rule="evenodd" d="M5.61735 5.28209C5.64489 4.56618 6.23326 4 6.9497 4H13.0503C13.7667 4 14.3551 4.56618 14.3826 5.28209L14.6419 12.0226C14.6575 12.4294 14.4864 12.8212 14.1773 13.0862L11.3016 15.551C10.5526 16.193 9.4474 16.193 8.69842 15.551L5.82273 13.0862C5.51358 12.8212 5.34246 12.4294 5.35811 12.0226L5.61735 5.28209Z"/>
</mask>
<path fill-rule="evenodd" clip-rule="evenodd" d="M5.61735 5.28209C5.64489 4.56618 6.23326 4 6.9497 4H13.0503C13.7667 4 14.3551 4.56618 14.3826 5.28209L14.6419 12.0226C14.6575 12.4294 14.4864 12.8212 14.1773 13.0862L11.3016 15.551C10.5526 16.193 9.4474 16.193 8.69842 15.551L5.82273 13.0862C5.51358 12.8212 5.34246 12.4294 5.35811 12.0226L5.61735 5.28209Z" fill="white"/>
<path fill-rule="evenodd" clip-rule="evenodd" d="M5.61735 5.28209C5.64489 4.56618 6.23326 4 6.9497 4H13.0503C13.7667 4 14.3551 4.56618 14.3826 5.28209L14.6419 12.0226C14.6575 12.4294 14.4864 12.8212 14.1773 13.0862L11.3016 15.551C10.5526 16.193 9.4474 16.193 8.69842 15.551L5.82273 13.0862C5.51358 12.8212 5.34246 12.4294 5.35811 12.0226L5.61735 5.28209Z" stroke="white" stroke-width="2.66667" mask="url(#path-7-outside-2_5138_1730)"/>
</mask>
<g mask="url(#mask1_5138_1730)">
<path fill-rule="evenodd" clip-rule="evenodd" d="M9.33333 11C9.33333 10.8159 9.18409 10.6667 9 10.6667H7.66667C7.48257 10.6667 7.33333 10.5174 7.33333 10.3333V9.66668C7.33333 9.48258 7.48257 9.33334 7.66667 9.33334H9C9.18409 9.33334 9.33333 9.1841 9.33333 9.00001V8.33334C9.33333 8.14925 9.18409 8.00001 9 8.00001H8.33333C8.14924 8.00001 8 7.85077 8 7.66668V7.00001C8 6.81592 8.14924 6.66668 8.33333 6.66668H9C9.18409 6.66668 9.33333 6.51744 9.33333 6.33334V5.66668C9.33333 5.48258 9.48257 5.33334 9.66667 5.33334H10.3333C10.5174 5.33334 10.6667 5.48258 10.6667 5.66668V6.33334C10.6667 6.51744 10.8159 6.66668 11 6.66668H11.6667C11.8508 6.66668 12 6.81592 12 7.00001V7.66668C12 7.85077 11.8508 8.00001 11.6667 8.00001H11C10.8159 8.00001 10.6667 8.14925 10.6667 8.33334V9.00001C10.6667 9.1841 10.8159 9.33334 11 9.33334H12.3333C12.5174 9.33334 12.6667 9.48258 12.6667 9.66668V10.3333C12.6667 10.5174 12.5174 10.6667 12.3333 10.6667H11C10.8159 10.6667 10.6667 10.8159 10.6667 11V13C10.6667 13.1841 10.5174 13.3333 10.3333 13.3333H9.66667C9.48257 13.3333 9.33333 13.1841 9.33333 13V11Z" fill="white"/>
<path fill-rule="evenodd" clip-rule="evenodd" d="M8.79646 13.4254C9.01109 12.9767 9.46934 12.6667 10 12.6667C10.5307 12.6667 10.9889 12.9767 11.2035 13.4254C12.8246 13.6808 14 14.4384 14 15.3333C14 16.4379 12.2091 17.3333 10 17.3333C7.79086 17.3333 6 16.4379 6 15.3333C6 14.4384 7.17545 13.6808 8.79646 13.4254Z" fill="#1251A1"/>
</g>
</g>
</g>
<defs>
<clipPath id="clip0_5138_1730">
<rect width="28" height="20" fill="white"/>
</clipPath>
<clipPath id="clip1_5138_1730">
<rect width="10" height="12" fill="white" transform="translate(4.66667 4)"/>
</clipPath>
</defs>
</svg>

<svg xmlns="http://www.w3.org/2000/svg" width="28" height="20" fill="none" viewBox="0 0 28 20"><g clip-path="url(#a)"><path fill="#fff" d="M0 2C0 .8954.8954 0 2 0h24c1.1046 0 2 .8954 2 2v16c0 1.1046-.8954 2-2 2H2c-1.1046 0-2-.8954-2-2z"/><mask id="b" width="28" height="20" x="0" y="0" maskUnits="userSpaceOnUse" style="mask-type:luminance"><rect width="28" height="20" fill="#fff" rx="2"/></mask><g mask="url(#b)"><path fill="#f5f5f5" d="M26 19.5v.5H2v-.5zm1.5-1.5V2c0-.8284-.6716-1.5-1.5-1.5H2C1.1716.5.5 1.1716.5 2v16c0 .8284.6716 1.5 1.5 1.5v.5c-1.1046 0-2-.8954-2-2V2C0 .8954.8954 0 2 0h24c1.1046 0 2 .8954 2 2v16c0 1.1046-.8954 2-2 2v-.5c.8284 0 1.5-.6716 1.5-1.5"/><path fill="#0c47b7" fill-rule="evenodd" d="M0 13.3333h28V6.6667H0z" clip-rule="evenodd"/><path fill="#e53b35" fill-rule="evenodd" d="M0 20h28v-6.6667H0z" clip-rule="evenodd"/></g><g clip-path="url(#c)"><mask id="d" width="13" height="16" x="3" y="2" fill="#000" maskUnits="userSpaceOnUse"><path fill="#fff" d="M3.3834 2h13v16h-13z"/><path fill-rule="evenodd" d="M5.6174 5.282C5.6449 4.5663 6.2333 4 6.9497 4h6.1006c.7164 0 1.3048.5662 1.3323 1.282l.2593 6.7406a1.334 1.334 0 0 1-.4646 1.0636l-2.8757 2.4648c-.749.642-1.8542.642-2.6032 0l-2.8757-2.4648a1.334 1.334 0 0 1-.4646-1.0636z" clip-rule="evenodd"/></mask><path fill="#f73744" fill-rule="evenodd" d="M5.6174 5.282C5.6449 4.5663 6.2333 4 6.9497 4h6.1006c.7164 0 1.3048.5662 1.3323 1.282l.2593 6.7406a1.334 1.334 0 0 1-.4646 1.0636l-2.8757 2.4648c-.749.642-1.8542.642-2.6032 0l-2.8757-2.4648a1.334 1.334 0 0 1-.4646-1.0636z" clip-rule="evenodd"/><path stroke="#fff" stroke-width="3" d="M5.6174 5.282C5.6449 4.5663 6.2333 4 6.9497 4h6.1006c.7164 0 1.3048.5662 1.3323 1.282l.2593 6.7406a1.334 1.334 0 0 1-.4646 1.0636l-2.8757 2.4648c-.749.642-1.8542.642-2.6032 0l-2.8757-2.4648a1.334 1.334 0 0 1-.4646-1.0636z" clip-rule="evenodd" mask="url(#d)"/><mask id="f" width="12" height="16" x="4" y="2" maskUnits="userSpaceOnUse" style="mask-type:luminance"><mask id="e" width="13" height="16" x="3" y="2" fill="#000" maskUnits="userSpaceOnUse"><path fill="#fff" d="M3.3834 2h13v16h-13z"/><path fill-rule="evenodd" d="M5.6174 5.282C5.6449 4.5663 6.2333 4 6.9497 4h6.1006c.7164 0 1.3048.5662 1.3323 1.282l.2593 6.7406a1.334 1.334 0 0 1-.4646 1.0636l-2.8757 2.4648c-.749.642-1.8542.642-2.6032 0l-2.8757-2.4648a1.334 1.334 0 0 1-.4646-1.0636z" clip-rule="evenodd"/></mask><path fill="#fff" fill-rule="evenodd" d="M5.6174 5.282C5.6449 4.5663 6.2333 4 6.9497 4h6.1006c.7164 0 1.3048.5662 1.3323 1.282l.2593 6.7406a1.334 1.334 0 0 1-.4646 1.0636l-2.8757 2.4648c-.749.642-1.8542.642-2.6032 0l-2.8757-2.4648a1.334 1.334 0 0 1-.4646-1.0636z" clip-rule="evenodd"/><path fill-rule="evenodd" stroke="#fff" stroke-width="3" d="M5.6174 5.282C5.6449 4.5663 6.2333 4 6.9497 4h6.1006c.7164 0 1.3048.5662 1.3323 1.282l.2593 6.7406a1.334 1.334 0 0 1-.4646 1.0636l-2.8757 2.4648c-.749.642-1.8542.642-2.6032 0l-2.8757-2.4648a1.334 1.334 0 0 1-.4646-1.0636z" clip-rule="evenodd" mask="url(#e)"/></mask><g fill-rule="evenodd" clip-rule="evenodd" mask="url(#f)"><path fill="#fff" d="M9.3333 11A.3333.3333 0 0 0 9 10.6667H7.6667a.3334.3334 0 0 1-.3334-.3334v-.6666a.3333.3333 0 0 1 .3334-.3334H9A.3333.3333 0 0 0 9.3333 9v-.6667A.3333.3333 0 0 0 9 8h-.6667A.3333.3333 0 0 1 8 7.6667V7c0-.184.1492-.3333.3333-.3333H9a.3333.3333 0 0 0 .3333-.3334v-.6666a.3333.3333 0 0 1 .3334-.3334h.6666a.3334.3334 0 0 1 .3334.3334v.6666c0 .1841.1492.3334.3333.3334h.6667A.3333.3333 0 0 1 12 7v.6667A.3333.3333 0 0 1 11.6667 8H11a.3333.3333 0 0 0-.3333.3333V9c0 .1841.1492.3333.3333.3333h1.3333a.3334.3334 0 0 1 .3334.3334v.6666a.3334.3334 0 0 1-.3334.3334H11a.3333.3333 0 0 0-.3333.3333v2a.3334.3334 0 0 1-.3334.3333h-.6666A.3333.3333 0 0 1 9.3333 13z"/><path fill="#1251a1" d="M8.7965 13.4254c.2146-.4487.6728-.7587 1.2035-.7587s.9889.31 1.2035.7587C12.8246 13.6808 14 14.4384 14 15.3333c0 1.1046-1.7909 2-4 2s-4-.8954-4-2c0-.8949 1.1754-1.6525 2.7965-1.9079"/></g></g></g><defs><clipPath id="a"><path fill="#fff" d="M0 0h28v20H0z"/></clipPath><clipPath id="c"><path fill="#fff" d="M4.6667 4h10v12h-10z"/></clipPath></defs></svg>
